X: 33011
T: Price Of A Pig, The
R: jig
M: 6/8
K: Adorian
|:ede A2 A|BAB G2 G|e>ge edB|def gfg|
ede A2 A|BAB G2 G|e>ge edB|BAA A3:|
efg a>ee|efg a2 a|age edB|def gfg|
ede A2 A|BAB G2 G|e>ge edB|BAA A3:|

